!!!SOCIAL_FUNCTION:	songs used in the treatment of the sick
!!!PDT:	1929
!!!OTL: No_61_Song_of_a_Black_Horse.krn
!!!REG: Southwest
!!!LANG: Non-Tone
!!!LING_GROUP: Uto-Aztecan
**kern
*staff1
=1-
*clefF4
*k[f#c#g#d#a#]
*M2/4
4G#\
4c#\
=2
4c#\
4B\
=3||
*M3/4
4B\
8G#\L
8F#\J
4F#\
=4||
*M2/4
4c#\
4c#\
=5
4B\
4B\
=6
2G#\
=7
4F#\
8F#\L
8D#\J
=8
4G#\
4G#\
=9
4F#\
8F#\L
8D#\J
=10||
*M3/4
2F#\
4D#\
=11||
*M2/4
4C#/
4r
=12
4.B\
8G#\
=13
4B\
4B\
=14
4G#\
4D#\
=15||
*M3/4
4F#\
8F#\L
8D#\J
4F#\
=16
2F#\
4F#\
=17
2.F#\
=18||
*M2/4
4F#\
4F#\
=19
4c#\
4c#\
=20
4B\
4B\
=21
8G#\L
8F#\J
4F#\
=22
8c#\L
8c#\J
4c#\
=23
4B\
4B\
=24
4G#\
4G#\
=25
4.F#\
8D#\
=26
4G#\
4G#\
=27
4F#\
4F#\
=28
8D#/L
8C#/J
8C#/
8r
=29||
*M3/4
4F#\
8F#\L
8D#\J
4F#\
=30
2F#\
4F#\
=31
2.F#\
==
*-
